X:25
T:Humours of Lissadel
R:reel
Z:Transcribed by Dave Marshall
M:C|
K:EDor
|:e~B3 eBdB|A~F3 EDB,A,|B,~E3 B,EGE|F~B3 FBdf|
e~B3 eBdB|A~F3 EDB,A,|B,~E3 EFGA|(3Bcd ef e2gf:|
|:e~B3 A2FA|d2fd edef|d~f3 dfbf|afdf edBc
|d2fd BcdB|A~F3 ABde|~f2ef dfbf |1 afdf e2gf :|2 afdf e4 |
